X:1
T:"Le pianiste virtuose"
T:C.L.Hanon (1819-1900)
T:"Le pianiste virtuose"
T:Extension (stretching) of fingers in chords of the dominant seventh, in arpeggios.
T:Chromatic Scales.
T:Public Domain
T:Public Domain
T:Public Domain
T:Public Domain
T:Public Domain
T:Public Domain
T:Public Domain
T:Public Domain
T:Public Domain
T:Public Domain
T:Public Domain
T:Public Domain
T:Public Domain
T:Public Domain
T:Public Domain
T:Public Domain
T:Public Domain
T:Public Domain
T:Public Domain
T:Public Domain
T:Public Domain
T:Public Domain
T:Public Domain
T:Public Domain
C:C.L.Hanon (1819-1900)
Z:Public Domain
%%score { 1 | 2 }
L:1/8
Q:1/4=120
M:2/4
K:C
V:1 treble nm="Piano" snm="Pno."
V:2 bass 
V:1
[I:staff +1] C,/D,/E,/F,/G,/A,/B,/C/ |[I:staff -1] D/E/F/G/A/B/c/d/ | e/f/g/a/b/c'/d'/e'/ | %3
!8va(! f'/g'/a'/b'/c''/b'/a'/g'/ | f'/e'/d'/c'/!8va)!b/a/g/f/ | e/d/c/B/A/G/F/E/ | %6
[I:staff +1] D/C/B,/A,/G,/F,/E,/D,/ :| !1!C,2[I:staff -1] !1!!3!!5![DAc]2 | %8
 !1!!2!!5![EGc]2 !1!!2!!3!!5![DFGB]2 | !1!!2!!3!!5![CEGc]4 |] %10
[M:2/4][I:staff +1] A,,/B,,/C,/D,/E,/F,/^G,/A,/ | B,/C/[I:staff -1]D/E/F/^G/A/B/ | %12
 c/d/e/f/^g/a/b/c'/ |!8va(! d'/e'/f'/^g'/a'/g'/f'/e'/!8va)! | d'/c'/b/a/^g/f/e/d/ | %15
 c/B/A/^G/F/E/D/C/ |[I:staff +1] B,/A,/^G,/F,/E,/D,/C,/B,,/ :| A,,2[I:staff -1] [Bfa]2 | %18
 [cea]2 [Bde^g]2 | [Acea]4 |][M:2/4][I:staff +1] A,,/B,,/C,/D,/E,/^F,/^G,/A,/ | %21
 B,/C/[I:staff -1]D/E/^F/^G/A/B/ | c/d/e/^f/^g/a/b/c'/ |!8va(! d'/e'/^f'/^g'/a'/=g'/=f'/e'/!8va)! | %24
 d'/c'/b/a/=g/=f/e/d/ | c/B/A/G/F/E/D/C/ |[I:staff +1] B,/A,/G,/F,/E,/D,/C,/B,,/ :| %27
 A,,2[I:staff -1] [Bfa]2 | [cea]2 [Bde^g]2 | [Acea]4 |] %30
[K:F][M:2/4][I:staff +1] F,/G,/A,/B,/C/[I:staff -1]D/E/F/ | G/A/B/c/d/e/f/g/ | %32
 a/b/c'/d'/!8va(!e'/f'/g'/a'/ | b'/c''/d''/e''/f''/e''/d''/c''/ | b'/a'/g'/f'/!8va)!e'/d'/c'/b/ | %35
 a/g/f/e/d/c/B/A/ |[I:staff +1] G/F/E/D/C/B,/A,/G,/ :| F,2[I:staff -1] [Gdf]2 | [Acf]2 [GBce]2 | %39
 [FAcf]4 |][M:2/4][I:staff +1] D,/E,/F,/G,/A,/B,/^C/D/ | E/F/[I:staff -1]G/A/B/^c/d/e/ | %42
 f/g/a/b/^c'/d'/!8va(!e'/f'/ | g'/a'/b'/^c''/d''/c''/b'/a'/ | g'/f'/e'/d'/!8va)!^c'/b/a/g/ | %45
 f/e/d/^c/B/A/G/F/ | E/D/^C/[I:staff +1]B,/A,/G,/F,/E,/ :| D,2[I:staff -1] [EBd]2 | %48
 [FAd]2 [EGA^c]2 | [DFAd]4 |][M:2/4][I:staff +1] D,/E,/F,/G,/A,/=B,/^C/D/ | %51
[I:staff -1] E/F/G/A/=B/^c/d/e/ | f/g/a/=b/!8va(!^c'/d'/e'/f'/ | g'/a'/=b'/^c''/d''/=c''/_b'/a'/ | %54
 g'/f'/e'/d'/!8va)!=c'/_b/a/g/ | f/e/d/c/B/A/G/F/ | E/D/C/[I:staff +1]B,/A,/G,/F,/E,/ :| %57
 D,2[I:staff -1] [EBd]2 | [FAd]2 [EGA^c]2 | [DFAd]4 |] %60
[K:Bb][M:2/4][I:staff +1] B,,/C,/D,/E,/F,/G,/A,/B,/ |[I:staff -1] C/D/E/F/G/A/B/c/ | %62
 d/e/f/g/a/b/c'/d'/ |!8va(! e'/f'/g'/a'/b'/a'/g'/f'/!8va)! | e'/d'/c'/b/a/g/f/e/ | %65
 d/c/B/A/G/F/E/D/ |[I:staff +1] C/B,/A,/G,/F,/E,/D,/C,/ :| B,,2[I:staff -1] [CGB]2 | %68
 [DFB]2 [CEFA]2 | [B,DFB]4 |][M:2/4][I:staff +1] G,/A,/B,/C/[I:staff -1]D/E/^F/G/ | %71
 A/B/c/d/e/^f/g/a/ | b/c'/d'/e'/^f'/g'/a'/b'/ |!8va(! c''/d''/e''/^f''/g''/f''/e''/d''/!8va)! | %74
 c''/b'/a'/g'/^f'/e'/d'/c'/ | b/a/g/^f/e/d/c/B/ | A/G/^F/E/D/C/[I:staff +1]B,/A,/ :| %77
 G,2[I:staff -1] [Aeg]2 | [Bdg]2 [Acd^f]2 | [GBdg]4 |] %80
[M:2/4][I:staff +1] G,/A,/B,/C/[I:staff -1]D/=E/^F/G/ | %81
[I:staff +1] A/B/[I:staff -1]c/d/=e/^f/g/a/ | b/c'/d'/=e'/!8va(!^f'/g'/a'/b'/ | %83
 c'/d'/=e'/^f'/g'/=f'/_e'/d'/ | c''/b'/a'/g'/!8va)!f'/e'/d'/c'/ | b/a/g/f/e/d/c/B/ | %86
 A/G/F/E/D/C/[I:staff +1]B,/A,/ :| G,2[I:staff -1] [Aeg]2 | [Bdg]2 [Acd^f]2 | [GBdg]4 |] %90
[K:Eb][M:2/4][I:staff +1] E,/F,/G,/A,/B,/[I:staff -1]C/D/E/ | F/G/A/B/c/d/e/f/ | %92
 g/a/b/c'/d'/e'/f'/g'/ |!8va(! a'/b'/c''/d''/e''/d''/c''/b'/ | a'/g'/f'/e'/!8va)!d'/c'/b/a/ | %95
 g/f/e/d/c/B/A/G/ |[I:staff +1] F/E/D/C/B,/A,/G,/F,/ :| E,2[I:staff -1] [Fce]2 | [GBe]2 [FABd]2 | %99
 [EGBe]4 |][M:2/4][I:staff +1] C,/D,/E,/F,/G,/A,/=B,/C/ | D/E/[I:staff -1]F/G/A/=B/c/d/ | %102
 e/f/g/a/=b/c'/d'/e'/ |!8va(! f'/g'/a'/=b'/c''/b'/a'/g'/!8va)! | f'/e'/d'/c'/=b/a/g/f/ | %105
 e/d/c/=B/A/G/F/E/ | D/C/=B,/[I:staff +1]A,/G,/F,/E,/D,/ :| C,2[I:staff -1] [DAc]2 | %108
 [EGc]2 [DFG=B]2 | [CEGc]4 |][M:2/4][I:staff +1] C,/D,/E,/F,/G,/=A,/=B,/C/ | %111
[I:staff -1] D/E/F/G/=A/=B/c/d/ | e/f/g/=a/=b/c'/d'/e'/ | f/g/=a/=b/c'/_b/_a/g/ | %114
 f'/e'/d'/c'/_b/_a/g/f/ | e/d/c/B/A/G/F/E/ | D/C/B,/[I:staff +1]A,/G,/F,/E,/D,/ :| %117
 C,2[I:staff -1] [DAc]2 | [EGc]2 [DFG=B]2 | [CEGc]4 |] %120
[K:Ab][M:2/4][I:staff +1] A,,/B,,/C,/D,/E,/F,/G,/A,/ |[I:staff -1] B,/C/D/E/F/G/A/B/ | %122
 c/d/e/f/g/a/b/c'/ |!8va(! d'/e'/f'/g'/a'/g'/f'/e'/ | d'/c'/b/a/!8va)!g/f/e/d/ | c/B/A/G/F/E/D/C/ | %126
[I:staff +1] B,/A,/G,/F,/E,/D,/C,/B,,/ :| A,,2[I:staff -1] [Bfa]2 | [cea]2 [Bdeg]2 | [Acea]4 |] %130
[M:2/4][I:staff +1] F,,/G,,/A,,/B,,/C,/D,/=E,/F,/ | G,/A,/[I:staff -1]B,/C/D/=E/F/G/ | %132
 A/B/c/d/=e/f/g/a/ |!8va(! b/c'/d'/=e'/f'/e'/d'/c'/!8va)! | b/a/g/f/=e/d/c/B/ | %135
 A/G/F/=E/D/C/B,/A,/ |[I:staff +1] G,/F,/=E,/D,/C,/B,,/A,,/G,,/ :| F,,2[I:staff -1] [Gdf]2 | %138
 [Acf]2 [GBc=e]2 | [FAcf]4 |][M:2/4][I:staff +1] F,,/G,,/A,,/B,,/C,/=D,/=E,/F,/ | %141
 G,/A,/[I:staff -1]B,/C/=D/=E/F/G/ | A/B/c/=d/=e/f/g/a/ | B/c/=d/=e/f/_e/_d/c/ | %144
 b/a/g/f/_e/_d/c/B/ | A/G/F/E/D/C/B,/A,/ |[I:staff +1] G,/F,/E,/D,/C,/B,,/A,,/G,,/ :| %147
 F,,2[I:staff -1] [Gdf]2 | [Acf]2 [GBc=e]2 | [FAcf]4 |] %150
[K:Db][M:2/4][I:staff +1] D,/E,/F,/G,/A,/[I:staff -1]B,/C/D/ | E/F/G/A/B/c/d/e/ | %152
 f/g/a/b/c'/d'/e'/f'/ |!8va(! g'/a'/b'/c''/d''/c''/b'/a'/ | g'/f'/e'/d'/!8va)!c'/b/a/g/ | %155
 f/e/d/c/B/A/G/F/ |[I:staff +1] E/D/C/B,/A,/G,/F,/E,/ :| D,2[I:staff -1] [EBd]2 | [FAd]2 [EGAc]2 | %159
 [DFAd]4 |][M:2/4][I:staff +1] B,,/C,/D,/E,/F,/G,/=A,/B,/ | C/D/[I:staff -1]E/F/G/=A/B/c/ | %162
 d/e/f/g/=a/b/c'/d'/ |!8va(! e'/f'/g'/=a'/b'/a'/g'/f'/!8va)! | e'/d'/c'/b/=a/g/f/e/ | %165
 d/c/B/=A/G/F/E/D/ | C/B,/=A,/[I:staff +1]G,/F,/E,/D,/C,/ :| B,,2[I:staff -1] [CGB]2 | %168
 [DFB]2 [CEF=A]2 | [B,DFB]4 |][M:2/4][I:staff +1] B,,/C,/D,/E,/F,/=G,/=A,/B,/ | %171
[I:staff -1] C/D/E/F/=G/=A/B/c/ | d/e/f/=g/=a/b/c'/d'/ | e/f/=g/=a/b/_a/_g/f/ | %174
 e'/d'/c'/b/_a/_g/f/e/ | d/c/B/A/G/F/E/D/ | C/B,/A,/[I:staff +1]G,/F,/E,/D,/C,/ :| %177
 B,,2[I:staff -1] [CGB]2 | [DFB]2 [CEF=A]2 | [B,DFB]4 |] %180
[K:Gb][M:2/4][I:staff +1] G,/A,/B,/C/D/[I:staff -1]E/F/G/ | A/B/c/d/e/f/g/a/ | %182
 b/c'/d'/e'/f'/g'/a'/b'/ |!8va(! c''/d''/e''/f''/g''/f''/e''/d''/ | %184
 c''/b'/a'/g'/!8va)!f'/e'/d'/c'/ | b/a/g/f/e/d/c/B/ |[I:staff +1] A/G/F/E/D/C/B,/A,/ :| %187
 G,2[I:staff -1] [Aeg]2 | [Bdg]2 [Acdf]2 | [GBdg]4 |][M:2/4][I:staff +1] E,/F,/G,/A,/B,/C/=D/E/ | %191
 F/G/[I:staff -1]A/B/c/=d/e/f/ | g/a/b/c'/=d'/e'/f'/g'/ | %193
!8va(! a'/b'/c''/=d''/e''/d''/c''/b'/!8va)! | a'/g'/f'/e'/=d'/c'/b/a/ | g/f/e/=d/c/B/A/G/ | %196
 F/E/=D/[I:staff +1]C/B,/A,/G,/F,/ :| E,2[I:staff -1] [Fce]2 | [GBe]2 [FAB=d]2 | [EGBe]4 |] %200
[M:2/4][I:staff +1] E,/F,/G,/A,/B,/=C/=D/E/ |[I:staff -1] F/G/A/B/=c/=d/e/f/ | %202
 g/a/b/=c'/=d'/e'/f'/g'/ | a/b/=c'/=d'/e'/_d'/_c'/b/ | a'/g'/f'/e'/_d'/_c'/b/a/ | %205
 g/f/e/d/c/B/A/G/ | F/E/D/[I:staff +1]C/B,/A,/G,/F,/ :| E,2[I:staff -1] [Fce]2 | [GBe]2 [FAB=d]2 | %209
 [EGBe]4 |][K:B][M:2/4][I:staff +1] B,,/C,/D,/E,/F,/G,/A,/B,/ |[I:staff -1] C/D/E/F/G/A/B/c/ | %212
 d/e/f/g/a/b/c'/d'/ |!8va(! e'/f'/g'/a'/b'/a'/g'/f'/ | e'/d'/c'/b/!8va)!a/g/f/e/ | %215
 d/c/B/A/G/F/E/D/ |[I:staff +1] C/B,/A,/G,/F,/E,/D,/C,/ :| B,,2[I:staff -1] [CGB]2 | %218
 [DFB]2 [CEFA]2 | [B,DFB]4 |][M:2/4][I:staff +1] G,/A,/B,/C/D/E/^^F/G/ | %221
 A/B/[I:staff -1]c/d/e/^^f/g/a/ | b/c'/d'/e'/^^f'/g'/a'/b'/ | c''/d''/e''/^^f''/g''/f''/e''/d''/ | %224
 c''/b'/a'/g'/^^f'/e'/d'/c'/ | b/a/g/^^f/e/d/c/B/ |[I:staff +1] A/G/^^F/E/D/C/B,/A,/ :| %227
 G,2[I:staff -1] [Aeg]2 | [Bdg]2 [Acd^^f]2 | [GBdg]4 |] %230
[M:2/4][I:staff +1] G,/A,/B,/C/[I:staff -1]D/^E/^^F/G/ | A/B/c/d/^e/^^f/g/a/ | %232
 b/c'/d'/^e'/^^f'/g'/a'/b'/ | c''/d''/^e''/^^f''/g''/^f''/=e''/d''/ | c''/b'/a'/g'/f'/e'/d'/c'/ | %235
 b/a/g/f/e/d/c/B/ | A/G/F/E/D/C/[I:staff +1]B,/A,/ :| G,2[I:staff -1] [Aeg]2 | [Bdg]2 [Acd^^f]2 | %239
 [GBdg]4 |][K:E][M:2/4][I:staff +1] E,/F,/G,/A,/B,/C/D/E/ |[I:staff -1] F/G/A/B/c/d/e/f/ | %242
 g/a/b/c'/d'/e'/f'/g'/ |!8va(! a'/b'/c''/d''/e''/d''/c''/b'/ | a'/g'/f'/e'/!8va)!d'/c'/b/a/ | %245
 g/f/e/d/c/B/A/G/ |[I:staff +1] F/E/D/C/B,/A,/G,/F,/ :| E,2[I:staff -1] [Fce]2 | [GBe]2 [FABd]2 | %249
 [EGBe]4 |][M:2/4][I:staff +1] C,/D,/E,/F,/G,/A,/^B,/C/ | D/E/[I:staff -1]F/G/A/^B/c/d/ | %252
 e/f/g/a/^b/c'/d'/e'/ | f'/g'/a'/^b'/c''/b'/a'/g'/ | f'/e'/d'/c'/^b/a/g/f/ | e/d/c/^B/A/G/F/E/ | %256
[I:staff +1] D/C/^B,/A,/G,/F,/E,/D,/ :| C,2[I:staff -1] [DAc]2 | [EGc]2 [DFG^B]2 | [CEGc]4 |] %260
[M:2/4][I:staff +1] C,/D,/E,/F,/[I:staff -1]G,/^A,/^B,/C/ | D/E/F/G/^A/^B/c/d/ | %262
 e/f/g/^a/^b/c'/d'/e'/ | f'/g'/^a'/^b'/c''/=b'/=a'/g'/ | f'/e'/d'/c'/b/a/g/f/ | e/d/c/B/A/G/F/E/ | %266
 D/C/B,/A,/G,/F,/[I:staff +1]E,/D,/ :| C,2[I:staff -1] [DAc]2 | [EGc]2 [DFG^B]2 | [CEGc]4 |] %270
[K:A][M:2/4][I:staff +1] A,,/B,,/C,/D,/E,/F,/G,/A,/ |[I:staff -1] B,/C/D/E/F/G/A/B/ | %272
 c/d/e/f/g/a/b/c'/ |!8va(! d'/e'/f'/g'/a'/g'/f'/e'/ | d'/c'/b/a/!8va)!g/f/e/d/ | c/B/A/G/F/E/D/C/ | %276
[I:staff +1] B,/A,/G,/F,/E,/D,/C,/B,,/ :| A,,2[I:staff -1] [B,FA]2 | [CEA]2 [B,DEG]2 | [A,CEA]4 |] %280
[M:2/4][I:staff +1] F,/G,/A,/B,/C/D/^E/F/ | G/A/[I:staff -1]B/c/d/^e/f/g/ | %282
 a/b/c'/d'/^e'/f'/g'/a'/ | b'/c''/d''/^e''/f''/e''/d''/c''/ | b'/a'/g'/f'/^e'/d'/c'/b/ | %285
 a/g/f/^e/d/c/B/A/ |[I:staff +1] G/F/^E/D/C/B,/A,/G,/ :| F,2[I:staff -1] [Gdf]2 | [Acf]2 [GBc^e]2 | %289
 [FAcf]4 |][M:2/4][I:staff +1] F,/G,/A,/B,/[I:staff -1]C/^D/^E/F/ | G/A/B/c/^d/^e/f/g/ | %292
 a/b/c'/^d'/^e'/f'/g'/a'/ | b'/c''/^d''/^e''/f''/=e''/=d''/c''/ | b'/a'/g'/f'/e'/d'/c'/b/ | %295
 a/g/f/e/d/c/B/A/ | G/F/E/D/C/B,/[I:staff +1]A,/G,/ :| F,2[I:staff -1] [Gdf]2 | [Acf]2 [GBc^e]2 | %299
 [FAcf]4 |][K:D][M:2/4][I:staff +1] D,/E,/F,/G,/A,/B,/C/D/ |[I:staff -1] E/F/G/A/B/c/d/e/ | %302
 f/g/a/b/c'/d'/e'/f'/ |!8va(! g'/a'/b'/c''/d''/c''/b'/a'/ | g'/f'/e'/d'/!8va)!c'/b/a/g/ | %305
 f/e/d/c/B/A/G/F/ |[I:staff +1] E/D/C/B,/A,/G,/F,/E,/ :| D,2[I:staff -1] [EBd]2 | [FAd]2 [EGAc]2 | %309
 [DFAd]4 |][M:2/4][I:staff +1] B,,/C,/D,/E,/F,/G,/^A,/B,/ | C/D/[I:staff -1]E/F/G/^A/B/c/ | %312
 d/e/f/g/^a/b/c'/d'/ |!8va(! e'/f'/g'/^a'/b'/a'/g'/f'/!8va)! | e'/d'/c'/b/^a/g/f/e/ | %315
 d/c/B/^A/G/F/E/D/ |[I:staff +1] C/B,/^A,/G,/F,/E,/D,/C,/ :| B,,,2[I:staff -1] [CGB]2 | %318
 [DFB]2 [CEF^A]2 | [B,DFB]4 |][M:2/4][I:staff +1] B,,/C,/D,/E,/F,/^G,/^A,/B,/ | %321
 C/D/[I:staff -1]E/F/^G/^A/B/c/ | d/e/f/^g/^a/b/c'/d'/ | e/f/^g/^a/b/=a/=g/f/ | %324
 e'/d'/c'/b/a/g/f/e/ | d/c/B/A/G/F/E/D/ |[I:staff +1] C/B,/A,/G,/F,/E,/D,/C,/ :| %327
 B,,2[I:staff -1] [CGB]2 | [DFB]2 [CEF^A]2 | [B,DFB]4 |] %330
[K:G][M:2/4][I:staff +1] G,/A,/B,/C/D/E/F/G/ |[I:staff -1] A/B/c/d/e/f/g/a/ | %332
 b/c'/d'/e'/f'/g'/a'/b'/ |!8va(! c''/d''/e''/f''/g''/f''/e''/d''/ | %334
 c''/b'/a'/g'/!8va)!f'/e'/d'/c'/ | b/a/g/f/e/d/c/B/ |[I:staff +1] A/G/F/E/D/C/B,/A,/ :| %337
 G,2[I:staff -1] [Aeg]2 | [Bdg]2 [Acdf]2 | [GBdg]4 |][M:2/4][I:staff +1] E,/F,/G,/A,/B,/C/^D/E/ | %341
 F/G/[I:staff -1]A/B/c/^d/e/f/ | g/a/b/c'/^d'/e'/f'/g'/ | %343
!8va(! a'/b'/c''/^d''/e''/d''/c''/b'/!8va)! | a'/g'/f'/e'/^d'/c'/b/a/ | g/f/e/^d/c/B/A/G/ | %346
[I:staff +1] F/E/^D/C/B,/A,/G,/F,/ :| E,,2[I:staff -1] [Fce]2 | [GBe]2 [FAB^d]2 | [EGBe]4 |] %350
[M:2/4][I:staff +1] E,/F,/G,/A,/B,/^C/^D/E/ | F/G/[I:staff -1]A/B/^c/^d/e/f/ | %352
 g/a/b/^c'/^d'/e'/f'/g'/ | a/b/^c'/^d'/e'/=d'/=c'/b/ | a'/g'/f'/e'/d'/c'/b/a/ | g/f/e/d/c/B/A/G/ | %356
[I:staff +1] F/E/D/C/B,/A,/G,/F,/ :| E,2[I:staff -1] [Fce]2 | [GBe]2 [FAB^d]2 | [EGBe]4 |] %360
[K:C][M:3/4][Q:1/4=60]"^M.M to 120."[I:staff +1] C,/^C,/D,/^D,/E,/F,/^F,/G,/^G,/A,/^A,/B,/ | %361
[I:staff -1] C/^C/D/^D/E/F/^F/G/^G/A/^A/B/ | c/^c/d/^d/e/f/^f/g/^g/a/^a/b/ | %363
!8va(! c'/^c'/d'/^d'/e'/f'/^f'/g'/^g'/a'/^a'/b'/ | %364
 c''/b'/_b'/a'/_a'/g'/_g'/f'/e'/_e'/d'/_d'/!8va)! | c'/b/_b/a/_a/g/_g/f/e/_e/d/_d/ | %366
 c/B/_B/A/_A/G/_G/F/E/_E/D/_D/ |[I:staff +1] C/B,/_B,/A,/_A,/G,/_G,/F,/E,/_E,/D,/_D,/ :| %368
 C,4[I:staff -1] z2 |][M:3/4][I:staff +1] _E,,/=E,,/F,,/^F,,/G,,/^G,,/A,,/_B,,/=B,,/C,/^C,/D,/ | %370
 _E,/=E,/F,/^F,/G,/^G,/A,/_B,/=B,/C/^C/D/ |[I:staff -1] _E/=E/F/^F/G/^G/A/_B/=B/c/^c/d/ | %372
 _e/=e/f/^f/g/^g/a/_b/=b/c'/^c'/d'/ | _e'/d'/_d'/c'/=b/_b/a/_a/g/_g/f/=e/ | %374
 _e/d/_d/c/=B/_B/A/_A/G/_G/F/=E/ |[I:staff +1] _E/D/_D/C/=B,/_B,/A,/_A,/G,/_G,/F,/=E,/ | %376
 _E,/D,/_D,/C,/=B,,/_B,,/A,,/_A,,/G,,/_G,,/F,,/=E,,/ :| _E,,4[I:staff -1] z2 |] %378
[M:3/4][I:staff +1] C,/^C,/D,/^D,/=E,/=F,/^F,/G,/^G,/=A,/^A,/=B,/ | %379
[I:staff -1] C/^C/D/^D/E/F/^F/G/^G/A/^A/B/ | =c/^c/=d/^d/=e/=f/^f/=g/^g/=a/^a/=b/ | %381
 =c/^c/=d/^d/=e/=f/^f/=g/^g/=a/^a/=b/ | =c'/b/_b/=a/_a/=g/^f/=f/=e/_e/=d/^c'/ | %383
 =c'/=b/_b/=a/_a/=g/^f/=f/e/_e/d/^c/ | =c/=B/_B/=A/_A/=G/^F/=F/E/_E/D/^C/ | %385
[I:staff +1] =C/=B,/_B,/=A,/_A,/=G,/^F,/=F,/E,/_E,/D,/^C,/ :| =C,4[I:staff -1] z2 |] %387
[M:3/4][I:staff +1] C,/^C,/D,/_E,/=E,/=F,/_G,/=G,/_A,/=A,/_B,/=B,/ | %388
[I:staff -1] C/^C/D/_E/=E/F/_G/=G/_A/=A/_B/=B/ | =c/^c/d/_e/=e/=f/_g/=g/_a/=a/_b/=b/ | %390
!8va(! =c'/^c'/=d'/_e'/=e'/=f'/_g'/=g'/_a'/=a'/_b'/=b'/ | %391
 =c''/b'/_b'/a'/_a'/g'/_g'/f'/e'/_e'/=d'/_d'/!8va)! | c'/=b/_b/=a/_a/=g/_g/=f/e/_e/d/_d/ | %393
 =c/=B/_B/A/_A/=G/_G/=F/=E/_E/D/_D/ |[I:staff +1] C/=B,/_B,/A,/_A,/G,/_G,/F,/E,/_E,/D,/_D,/ :| %395
 C,4[I:staff -1] z2 |][M:3/4] c'/b/_b/a/^g/=g/^f/=f/e/_e/d/_d/ | c/B/_B/A/^G/=G/^F/=F/E/_E/D/_D/ | %398
 C/^C/D/^D/E/F/^F/G/^G/A/_B/=B/ | c/^c/d/^d/e/f/^f/g/^g/a/_b/=b/ :| c'4 z2 |] %401
[M:3/4] _e'/d'/_d'/c'/b/_b/a/_a/g/_g/f/=e/ | _e/d/_d/c/B/_B/A/_A/G/_G/F/=E/ | %403
 _E/=E/F/^F/G/^G/A/^A/B/c/^c/d/ | _e/=e/f/^f/g/^g/a/^a/b/c'/^c'/d'/ :| _e'4 z2 |] %406
[M:3/4] e'/_e'/d'/_d'/c'/b/_b/a/_a/g/_g/f/ | e/_e/d/_d/c/B/_B/A/_A/G/_G/F/ | %408
 E/F/^F/G/^G/A/^A/B/c/^c/d/^d/ | e/f/^f/g/^g/a/^a/b/c'/^c'/d'/^d'/ :| e'4 z2 |] %411
[M:3/4] C/^C/D/^D/E/F/^F/G/^G/A/^A/B/ | c/^c/d/^d/e/f/^f/g/^g/a/^a/b/ | %413
 c'/b/_b/a/_a/g/_g/f/e/_e/d/_d/ | c/B/_B/A/_A/G/_G/F/E/_E/D/_D/ :| C4 z2 |] %416
[M:3/4][Q:1/4=60]"^M.M to 108."[I:staff +1] C,/E,/G,/C/[I:staff -1] E/G/c/e/ g/c'/e'/!8va(!g'/ | %417
 c''/g'/e'/c'/!8va)! g/e/c/G/ E/C/[I:staff +1]G,/E,/ :| C,4[I:staff -1] z2 |] %419
[M:3/4][I:staff +1] A,,/C,/E,/A,/[I:staff -1] C/E/A/c/ e/a/c'/e'/ | %420
 a'/e'/c'/a/ e/c/A/E/[I:staff +1] C/A,/E,/C,/ :| A,,4[I:staff -1] z2 |] %422
[K:F][M:3/4][I:staff +1] F,/A,/C/F/[I:staff -1] A/c/f/a/ c'/f'/a'/c''/ | %423
 f''/c''/a'/f'/ c'/a/f/c/ A/F/[I:staff +1]C/A,/ :| F,4[I:staff -1] z2 |] %425
[M:3/4][I:staff +1] D,/F,/A,/D/[I:staff -1] F/A/d/f/ a/d'/f'/a'/ | %426
 d''/a'/f'/d'/ a/f/d/A/ F/D/[I:staff +1]A,/F,/ :| D,4[I:staff -1] z2 |] %428
[K:Bb][M:3/4][I:staff +1] B,,/D,/F,/B,/[I:staff -1] D/F/B/d/ f/b/d'/f'/ | %429
 b'/f'/d'/b/ f/d/B/F/ D/B,/[I:staff +1]F,/D,/ :| B,,4[I:staff -1] z2 |] %431
[M:3/4][I:staff +1] G,,/B,,/D,/G,/[I:staff -1] B,/D/G/B/ d/g/b/d'/ | %432
 g'/d'/b/g/ d/B/G/D/ B,/G,/[I:staff +1]D,/B,,/ :| G,,4[I:staff -1] z2 |] %434
[K:Eb][M:3/4][I:staff +1] E,/G,/B,/E/[I:staff -1] G/B/e/g/ b/e'/g'/b'/ | %435
 e''/b'/g'/e'/ b/g/e/B/ G/E/[I:staff +1]B,/G,/ :| E,4[I:staff -1] z2 |] %437
[M:3/4][I:staff +1] C,/E,/G,/C/[I:staff -1] E/G/c/e/ g/c'/e'/g'/ | %438
 c''/g'/e'/c'/ g/e/c/G/ E/C/[I:staff +1]G,/E,/ :| C,4[I:staff -1] z2 |] %440
[K:Ab][M:3/4][I:staff +1] A,,/C,/E,/A,/[I:staff -1] C/E/A/c/ e/a/c'/e'/ | %441
 a'/e'/c'/a/ e/c/A/E/ C/A,/[I:staff +1]E,/C,/ :| A,,4[I:staff -1] z2 |] %443
[M:3/4][I:staff +1] F,/A,/C/F/[I:staff -1] A/c/f/a/ c'/f'/a'/c''/ | %444
 f''/c''/a'/f'/ c'/a/f/c/ A/F/[I:staff +1]C/A,/ :| F,4[I:staff -1] z2 |] %446
[K:Db][M:3/4][I:staff +1] D,/F,/A,/D/[I:staff -1] F/A/d/f/ a/d'/f'/a'/ | %447
 d''/a'/f'/d'/ a/f/d/A/ F/D/[I:staff +1]A,/F,/ :| D,4[I:staff -1] z2 |] %449
[M:3/4][I:staff +1] B,,/D,/F,/B,/[I:staff -1] D/F/B/d/ f/b/d'/f'/ | %450
 b'/f'/d'/b/ f/d/B/F/ D/B,/[I:staff +1]F,/D,/ :| B,,4[I:staff -1] z2 |] %452
[K:Gb][M:3/4][I:staff +1] G,,/B,,/D,/G,/[I:staff -1] B,/D/G/B/ d/g/b/d'/ | %453
 g'/d'/b/g/ d/B/G/D/ B,/G,/[I:staff +1]D,/B,,/ :| G,,4[I:staff -1] z2 |] %455
[M:3/4][I:staff +1] E,/G,/B,/E/[I:staff -1] G/B/e/g/ b/e'/g'/b'/ | %456
 e''/b'/g'/e'/ b/g/e/B/ G/E/[I:staff +1]B,/G,/ :| E,4[I:staff -1] z2 |] %458
[K:B][M:3/4][I:staff +1] B,,/D,/F,/B,/[I:staff -1] D/F/B/d/ f/b/d'/f'/ | %459
 b'/f'/d'/b/ f/d/B/F/ D/B,/[I:staff +1]F,/D,/ :| B,,4[I:staff -1] z2 |] %461
[M:3/4][I:staff +1] G,,/B,,/D,/G,/[I:staff -1] B,/D/G/B/ d/g/b/d'/ | %462
 g'/d'/b/g/ d/B/G/D/ B,/G,/[I:staff +1]D,/B,,/ :| G,,4[I:staff -1] z2 |] %464
[K:E][M:3/4][I:staff +1] E,/G,/B,/E/[I:staff -1] G/B/e/g/ b/e'/g'/b'/ | %465
 e''/b'/g'/e'/ b/g/e/B/ G/E/[I:staff +1]B,/G,/ :| E,4[I:staff -1] z2 |] %467
[M:3/4][I:staff +1] C,/E,/G,/C/[I:staff -1] E/G/c/e/ g/c'/e'/g'/ | %468
 c''/g'/e'/c'/ g/e/c/G/ E/C/[I:staff +1]G,/E,/ :| C,4[I:staff -1] z2 |] %470
[K:A][M:3/4][I:staff +1] A,,/C,/E,/A,/[I:staff -1] C/E/A/c/ e/a/c'/!8va(!e'/ | %471
 a'/e'/!8va)!c'/a/ e/c/A/E/[I:staff +1] C/A,/E,/C,/ :| A,,4[I:staff -1] z2 |] %473
[M:3/4] F,,/A,,/C,/F,/ A,/C/F/A/ c/f/a/c'/ | f'/c'/a/f/ c/A/F/C/ A,/F,/C,/A,,/ :| %475
[I:staff +1] F,,4[I:staff -1] z2 |] %476
[K:D][M:3/4][I:staff +1] D,/F,/A,/D/[I:staff -1] F/A/d/f/ a/d'/f'/a'/ | %477
 d''/a'/f'/d'/ a/f/d/A/ F/D/[I:staff +1]A,/F,/ :| D,4[I:staff -1] z2 |] %479
[M:3/4][I:staff +1] B,,/D,/F,/B,/[I:staff -1] D/F/B/d/ f/b/d'/f'/ | %480
 b'/f'/d'/b/ f/d/B/F/ D/B,/[I:staff +1]F,/D,/ :| B,,4[I:staff -1] z2 |] %482
[K:G][M:3/4][I:staff +1] G,,/B,,/D,/G,/ B,/[I:staff -1]D/G/B/ d/g/b/d'/ | %483
 g'/d'/b/g/ d/B/G/D/[I:staff +1] B,/G,/D,/B,,/ :| G,,4[I:staff -1] z2 |] %485
[M:3/4][I:staff +1] E,/G,/B,/E/[I:staff -1] G/B/e/g/ b/e'/g'/b'/ | %486
 e''/b'/g'/e'/ b/g/e/B/ G/E/[I:staff +1]B,/G,/ :| E,4[I:staff -1] z2 |] %488
[K:C][M:2/4][Q:1/4=60][I:staff +1] C,/_E,/^F,/=A,/C/A,/F,/E,/ :: %489
[I:staff -1] C,/_E,/^F,/A,/C/_E/^F/A/ | c/_e/^f/a/c'/a/f/e/ | c/A/^F/_E/C/A,/^F,/_E,/ :: %492
[I:staff +1] D,/=F,/_A,/B,/D/B,/A,/F,/ ::[I:staff -1] D,/F,/_A,/B,/D/F/_A/B/ | d/f/_a/b/d'/b/a/f/ | %495
 d/B/_A/F/D/B,/_A,/F,/ ::[I:staff +1] E,/G,/_B,/^C/E/C/B,/G,/ :: %497
[I:staff -1] E,/G,/_B,/^C/E/G/_B/^c/ | e/g/_b/^c'/e'/c'/b/g/ | e/^c/_B/G/E/^C/_B,/G,/ :: %500
[I:staff +1] F,/_A,/B,/D/F/D/B,/A,/ ::[I:staff -1] F,/_A,/B,/D/F/_A/=B/d/ | f/_a/=b/d'/f'/d'/b/a/ | %503
 f/d/=B/_A/F/D/B,/_A,/ :: G,/_B,/^C/E/G/E/C/B,/ :: G,/_B,/^C/E/G/_B/^c/e/ | %506
 g/_b/^c'/e'/g'/e'/c'/b/ | g/e/^c/_B/G/E/^C/_B,/ :: A,/=C/_E/^F/A/F/E/C/ :: A,/C/_E/^F/A/c/_e/^f/ | %510
!8va(! a/c'/_e'/^f'/a'/f'/e'/c'/!8va)! | a/^f/_e/c/A/^F/_E/C/ :: B,/D/=F/_A/B/A/F/D/ :: %513
 B,/D/F/_A/B/d/f/_a/ |!8va(! b/d'/f'/_a'/b'/a'/f'/d'/!8va)! | b/_a/f/d/B/_A/F/D/ :| %516
 B/_A/F/D/B,/_A,/F,/D,/ ||[I:staff +1] C,4 |][M:2/4][Q:1/4=60] C,/E,/G,/_B,/C/B,/G,/E,/ :: %519
 C,/E,/G,/_B,/C/[I:staff -1]E/G/_B/ | c/e/g/_b/c'/b/g/e/ | c/_B/G/E/C/[I:staff +1]_B,/G,/E,/ :: %522
 D,/^F,/A,/C/D/C/A,/F,/ :: D,/^F,/A,/C/[I:staff -1]D/^F/A/c/ | d/^f/a/c'/d'/c'/a/f/ | %525
 d/c/A/^F/D/[I:staff +1]C/A,/^F,/ :: E,/^G,/B,/D/E/D/B,/G,/ :: E,/^G,/B,/[I:staff -1]D/E/^G/B/d/ | %528
 e/^g/b/d'/e'/d'/b/g/ | e/d/B/^G/E/D/[I:staff +1]B,/^G,/ :: F,/A,/C/_E/F/E/C/A,/ :: %531
[I:staff -1] F,/A,/C/_E/F/A/c/_e/ | f/a/c'/_e'/f'/e'/c'/a/ | f/_e/c/A/F/_E/C/A,/ :: %534
 G,/B,/D/F/G/F/D/B,/ :: G,/B,/D/F/G/B/d/f/ | g/b/d'/f'/g'/f'/d'/b/ | g/f/d/B/G/F/D/B,/ :: %538
 A,/^C/E/G/A/G/E/C/ :: A,/^C/E/G/A/^c/e/g/ |!8va(! a/^c'/e'/g'/a'/g'/e'/c'/!8va)! | %541
 a/g/e/^c/A/G/E/^C/ :| B,/^D/^F/A/B/A/F/D/ :: B,/^D/^F/A/B/^d/^f/a/ | %544
!8va(! b/^d'/^f'/a'/b'/a'/f'/d'/!8va)! | b/a/^f/^d/B/A/^F/^D/ :| C/E/G/B/c/e/g/b/ | %547
 c'/b/g/e/c/B/G/E/ | C/E/G/B/c/B/G/E/ |[I:staff +1] C/B,/G,/E,/C,/E,/G,/B,/ | [E,G,C]4 |] %551
V:2
 C,,/D,,/E,,/F,,/G,,/A,,/B,,/C,/ | D,/E,/F,/G,/A,/B,/C/D/ |[I:staff -1] E/F/G/A/B/c/d/e/ | %3
!8va(! f/g/a/b/c'/b/a/g/ | f/e/d/c/!8va)!B/A/G/F/ | E/D/[I:staff +1]C/B,/A,/G,/F,/E,/ | %6
 D,/C,/B,,/A,,/G,,/F,,/E,,/D,,/ :| !5!C,,2 [F,,F,]2 | [G,,G,]2 [G,,,G,,]2 | [C,,C,]4 |] %10
[M:2/4] A,,,/B,,,/C,,/D,,/E,,/F,,/^G,,/A,,/ | B,,/C,/D,/E,/F,/^G,/A,/B,/ | %12
[I:staff -1] C/D/E/F/^G/A/B/c/ |!8va(! d/e/f/^g/a/g/f/e/!8va)! | d/c/B/A/^G/F/E/D/ | %15
[I:staff +1] C/B,/A,/^G,/F,/E,/D,/C,/ | B,,/A,,/^G,,/F,,/E,,/D,,/C,,/B,,,/ :| A,,,2 [D,D]2 | %18
 [E,E]2 [E,,E,]2 | [A,,A,]4 |][M:2/4] A,,,/B,,,/C,,/D,,/E,,/^F,,/^G,,/A,,/ | %21
 B,,/C,/D,/E,/^F,/^G,/A,/B,/ |[I:staff -1] C/D/E/^F/^G/A/B/c/ |!8va(! d/e/^f/^g/a/=g/=f/e/!8va)! | %24
 d/c/B/A/G/F/E/D/ |[I:staff +1] C/B,/A,/=G,/=F,/E,/D,/C,/ | B,,/A,,/G,,/F,,/E,,/D,,/C,,/B,,,/ :| %27
 A,,,2 [D,D]2 | [E,E]2 [E,,E,]2 | [A,,A,]4 |][K:F][M:2/4] F,,/G,,/A,,/B,,/C,/D,/E,/F,/ | %31
 G,/A,/B,/C/D/E/F/G/ |[I:staff -1] A/B/c/d/!8va(!e/f/g/a/ | b/c'/d'/e'/f'/e'/d'/c'/ | %34
 b/a/g/f/!8va)!e/d/c/B/ | A/G/[I:staff +1]F/E/D/C/B,/A,/ | G,/F,/E,/D,/C,/B,,/A,,/G,,/ :| %37
 F,,2 [B,,B,]2 | [C,C]2 [C,,C,]2 | [F,,F,]4 |][M:2/4] D,,/E,,/F,,/G,,/A,,/B,,/^C,/D,/ | %41
 E,/F,/G,/A,/B,/^C/D/E/ |[I:staff -1] F/G/A/B/^c/d/!8va(!e/f/ | g/a/b/^c'/d'/c'/b/a/ | %44
 g/f/e/d/!8va)!^c/B/A/G/ | F/E/D/^C/[I:staff +1]B,/A,/G,/F,/ | E,/D,/^C,/B,,/A,,/G,,/F,,/E,,/ :| %47
 D,,2 [G,,G,]2 | [A,,A,]2 [A,,,A,,]2 | [D,,D,]4 |][M:2/4] D,,/E,,/F,,/G,,/A,,/=B,,/^C,/D,/ | %51
 E,/F,/G,/A,/=B,/^C/[I:staff -1]D/E/ | F/G/A/=B/!8va(!^c/d/e/f/ | g/a/=b/^c'/d'/=c'/_b/a/ | %54
 g/f/e/d/!8va)!c/B/A/G/ | F/E/D/=C/[I:staff +1]_B,/A,/G,/F,/ | E,/D,/C,/B,,/A,,/G,,/F,,/E,,/ :| %57
 D,,2 [G,,G,]2 | [A,,A,]2 [A,,,A,,]2 | [D,,D,]4 |][K:Bb][M:2/4] B,,,/C,,/D,,/E,,/F,,/G,,/A,,/B,,/ | %61
 C,/D,/E,/F,/G,/A,/B,/C/ |[I:staff -1] D/E/F/G/A/B/c/d/ |!8va(! e/f/g/a/b/a/g/f/!8va)! | %64
 e/d/c/B/A/G/F/E/ | D/C/[I:staff +1]B,/A,/G,/F,/E,/D,/ | C,/B,,/A,,/G,,/F,,/E,,/D,,/C,,/ :| %67
 B,,,2 [E,,E,]2 | [F,,F,]2 [F,,,F,,]2 | [B,,,B,,]4 |][M:2/4] G,,/A,,/B,,/C,/D,/E,/^F,/G,/ | %71
 A,/B,/C/D/[I:staff -1]E/^F/G/A/ | B/c/d/e/^f/g/a/b/ |!8va(! c'/d'/e'/^f'/g'/f'/e'/d'/!8va)! | %74
 c'/b/a/g/^f/e/d/c/ |[I:staff +1] B/A/G/^F/E/D/C/B,/ | A,/G,/^F,/E,/D,/C,/B,,/A,,/ :| G,,2 [C,C]2 | %78
 [D,D]2 [D,,D,]2 | [G,,G,]4 |][M:2/4] G,,/A,,/B,,/C,/D,/=E,/^F,/G,/ | %81
 A,/B,/C/D/[I:staff -1]=E/^F/G/A/ | B/c/d/=e/!8va(!^f/g/a/b/ | c/d/=e/^f/g/=f/_e/d/ | %84
 c'/b/a/g/!8va)!f/e/d/c/ | B/A/G/F/E/D/C/B,/ |[I:staff +1] A,/G,/F,/E,/D,/C,/B,,/A,,/ :| %87
 G,,2 [C,C]2 | [D,D]2 [D,,D,]2 | [G,,G,]4 |][K:Eb][M:2/4] E,,/F,,/G,,/A,,/B,,/C,/D,/E,/ | %91
 F,/G,/A,/B,/C/D/E/F/ |[I:staff -1] G/A/B/c/d/e/f/g/ |!8va(! a/b/c'/d'/e'/d'/c'/b/ | %94
 a/g/f/e/!8va)!d/c/B/A/ | G/F/[I:staff +1]E/D/C/B,/A,/G,/ | F,/E,/D,/C,/B,,/A,,/G,,/F,,/ :| %97
 E,,2 [A,,A,]2 | [B,,B,]2 [B,,,B,,]2 | [E,,E,]4 |][M:2/4] C,,/D,,/E,,/F,,/G,,/A,,/=B,,/C,/ | %101
 D,/E,/F,/G,/A,/=B,/C/D/ |[I:staff -1] E/F/G/A/=B/c/d/e/ |!8va(! f/g/a/=b/c'/b/a/g/!8va)! | %104
 f/e/d/c/=B/A/G/F/ | E/D/C/=B,/[I:staff +1]A,/G,/F,/E,/ | D,/C,/=B,,/A,,/G,,/F,,/E,,/D,,/ :| %107
 C,,2 [F,,F,]2 | [G,,G,]2 [G,,,G,,]2 | [C,,C,]4 |][M:2/4] C,,/D,,/E,,/F,,/G,,/=A,,/=B,,/C,/ | %111
 D,/E,/F,/G,/=A,/=B,/[I:staff -1]C/D/ | E/F/G/=A/=B/c/d/e/ | F/G/=A/=B/c/_B/_A/G/ | %114
 f/e/d/c/B/A/G/F/ | E/D/C/_B,/[I:staff +1]_A,/G,/F,/E,/ | D,/C,/B,,/A,,/G,,/F,,/E,,/D,,/ :| %117
 C,,2 [F,,F,]2 | [G,,G,]2 [G,,,G,,]2 | [C,,C,]4 |] %120
[K:Ab][M:2/4] A,,,/B,,,/C,,/D,,/E,,/F,,/G,,/A,,/ | B,,/C,/D,/E,/F,/G,/A,/B,/ | %122
[I:staff -1] C/D/E/F/G/A/B/c/ |!8va(! d/e/f/g/a/g/f/e/ | d/c/B/A/!8va)!G/F/E/D/ | %125
 C/B,/[I:staff +1]A,/G,/F,/E,/D,/C,/ | B,,/A,,/G,,/F,,/E,,/D,,/C,,/B,,,/ :| A,,,2 [D,D]2 | %128
 [E,E]2 [E,,E,]2 | [A,,A,]4 |][M:2/4] F,,,/G,,,/A,,,/B,,,/C,,/D,,/=E,,/F,,/ | %131
 G,,/A,,/B,,/C,/D,/=E,/F,/G,/ |[I:staff -1] A,/B,/C/D/=E/F/G/A/ |!8va(! B/c/d/=e/f/e/d/c/!8va)! | %134
 B/A/G/F/=E/D/C/B,/ |[I:staff +1] A,/G,/F,/=E,/D,/C,/B,,/A,,/ | %136
 G,,/F,,/=E,,/D,,/C,,/B,,,/A,,,/G,,,/ :| F,,,2 [B,,B,]2 | [C,C]2 [C,,C,]2 | [F,,F,]4 |] %140
[M:2/4] F,,,/G,,,/A,,,/B,,,/C,,/=D,,/=E,,/F,,/ | G,,/A,,/B,,/C,/=D,/=E,/F,/G,/ | %142
[I:staff -1] A,/B,/C/=D/=E/F/G/A/ | B,/C/=D/=E/F/_E/_D/C/ | B/A/G/F/E/D/C/B,/ | %145
[I:staff +1] A,/G,/F,/_E,/_D,/C,/B,,/A,,/ | G,,/F,,/E,,/D,,/C,,/B,,,/A,,,/G,,,/ :| F,,,2 [B,,B,]2 | %148
 [C,C]2 [C,,C,]2 | [F,,F,]4 |][K:Db][M:2/4] D,,/E,,/F,,/G,,/A,,/B,,/C,/D,/ | %151
 E,/F,/G,/A,/B,/C/D/E/ |[I:staff -1] F/G/A/B/c/d/e/f/ |!8va(! g/a/b/c'/d'/c'/b/a/ | %154
 g/f/e/d/!8va)!c/B/A/G/ | F/E/[I:staff +1]D/C/B,/A,/G,/F,/ | E,/D,/C,/B,,/A,,/G,,/F,,/E,,/ :| %157
 D,,2 [G,,G,]2 | [A,,A,]2 [A,,,A,,]2 | [D,,D,]4 |][M:2/4] B,,,/C,,/D,,/E,,/F,,/G,,/=A,,/B,,/ | %161
 C,/D,/E,/F,/G,/=A,/B,/C/ |[I:staff -1] D/E/F/G/=A/B/c/d/ |!8va(! e/f/g/=a/b/a/g/f/!8va)! | %164
 e/d/c/B/=A/G/F/E/ | D/C/B,/=A,/[I:staff +1]G,/F,/E,/D,/ | C,/B,,/=A,,/G,,/F,,/E,,/D,,/C,,/ :| %167
 B,,,2 [E,,E,]2 | [F,,F,]2 [F,,,F,,]2 | [B,,,B,,]4 |][M:2/4] B,,,/C,,/D,,/E,,/F,,/=G,,/=A,,/B,,/ | %171
 C,/D,/E,/F,/=G,/=A,/[I:staff -1]B,/C/ | D/E/F/=G/=A/B/c/d/ | E/F/=G/=A/B/_A/_G/F/ | %174
 e/d/c/B/A/G/F/E/ | D/C/B,/_A,/[I:staff +1]_G,/F,/E,/D,/ | C,/B,,/A,,/G,,/F,,/E,,/D,,/C,,/ :| %177
 B,,,2 [E,,E,]2 | [F,,F,]2 [F,,,F,,]2 | [B,,,B,,]4 |][K:Gb][M:2/4] G,,/A,,/B,,/C,/D,/E,/F,/G,/ | %181
 A,/B,/C/D/E/F/G/A/ |[I:staff -1] B/c/d/e/f/g/a/b/ |!8va(! c'/d'/e'/f'/g'/f'/e'/d'/ | %184
 c'/b/a/g/!8va)!f/e/d/c/ | B/A/[I:staff +1]G/F/E/D/C/B,/ | A,/G,/F,/E,/D,/C,/B,,/A,,/ :| %187
 G,,2 [C,C]2 | [D,D]2 [D,,D,]2 | [G,,G,]4 |][M:2/4] E,,/F,,/G,,/A,,/B,,/C,/=D,/E,/ | %191
 F,/G,/A,/B,/C/=D/E/F/ |[I:staff -1] G/A/B/c/=d/e/f/g/ |!8va(! a/b/c'/=d'/e'/d'/c'/b/!8va)! | %194
 a/g/f/e/=d/c/B/A/ | G/F/E/=D/[I:staff +1]C/B,/A,/G,/ | F,/E,/=D,/C,/B,,/A,,/G,,/F,,/ :| %197
 E,,2 [A,,A,]2 | [B,,B,]2 [B,,,B,,]2 | [E,,E,]4 |][M:2/4] E,,/F,,/G,,/A,,/B,,/=C,/=D,/E,/ | %201
 F,/G,/A,/B,/=C/=D/[I:staff -1]E/F/ | G/A/B/=c/=d/e/f/g/ | A/B/=c/=d/e/_d/_c/B/ | %204
 a/g/f/e/d/c/B/A/ | G/F/E/_D/[I:staff +1]_C/B,/A,/G,/ | F,/E,/D,/C,/B,,/A,,/G,,/F,,/ :| %207
 E,,2 [A,,A,]2 | [B,,B,]2 [B,,,B,,]2 | [E,,E,]4 |][K:B][M:2/4] B,,,/C,,/D,,/E,,/F,,/G,,/A,,/B,,/ | %211
 C,/D,/E,/F,/G,/A,/B,/C/ |[I:staff -1] D/E/F/G/A/B/c/d/ |!8va(! e/f/g/a/b/a/g/f/ | %214
 e/d/c/B/!8va)!A/G/F/E/ | D/C/[I:staff +1]B,/A,/G,/F,/E,/D,/ | C,/B,,/A,,/G,,/F,,/E,,/D,,/C,,/ :| %217
 B,,,2 [E,,E,]2 | [F,,F,]2 [F,,,F,,]2 | [B,,,B,,]4 |][M:2/4] G,,/A,,/B,,/C,/D,/E,/^^F,/G,/ | %221
 A,/B,/C/D/E/^^F/G/A/ |[I:staff -1] B/c/d/e/^^f/g/a/b/ | c'/d'/e'/^^f'/g'/f'/e'/d'/ | %224
 c'/b/a/g/^^f/e/d/c/ |[I:staff +1] B/A/G/^^F/E/D/C/B,/ | A,/G,/^^F,/E,/D,/C,/B,,/A,,/ :| %227
 G,,2 [C,C]2 | [D,D]2 [D,,D,]2 | [G,,G,]4 |][M:2/4] G,,/A,,/B,,/C,/D,/^E,/^^F,/G,/ | %231
 A,/B,/C/[I:staff -1]D/^E/^^F/G/A/ | B/c/d/^e/^^f/g/a/b/ | c'/d'/^e'/^^f'/g'/^f'/=e'/d'/ | %234
 c'/b/a/g/f/e/d/c/ |[I:staff +1] B/A/G/F/E/D/C/B,/ | A,/G,/F,/E,/D,/C,/B,,/A,,/ :| G,,2 [C,C]2 | %238
 [D,D]2 [D,,D,]2 | [G,,G,]4 |][K:E][M:2/4] E,,/F,,/G,,/A,,/B,,/C,/D,/E,/ | F,/G,/A,/B,/C/D/E/F/ | %242
[I:staff -1] G/A/B/c/d/e/f/g/ |!8va(! a/b/c'/d'/e'/d'/c'/b/ | a/g/f/e/!8va)!d/c/B/A/ | %245
 G/F/[I:staff +1]E/D/C/B,/A,/G,/ | F,/E,/D,/C,/B,,/A,,/G,,/F,,/ :| E,,2 [A,,A,]2 | %248
 [B,,B,]2 [B,,,B,,]2 | [E,,E,]4 |][M:2/4] C,,/D,,/E,,/F,,/G,,/A,,/^B,,/C,/ | %251
 D,/E,/F,/G,/A,/^B,/C/D/ |[I:staff -1] E/F/G/A/^B/c/d/e/ | f/g/a/^b/c'/b/a/g/ | f/e/d/c/^B/A/G/F/ | %255
[I:staff +1] E/D/C/^B,/A,/G,/F,/E,/ | D,/C,/^B,,/A,,/G,,/F,,/E,,/D,,/ :| C,,2 [F,,F,]2 | %258
 [G,,G,]2 [G,,,G,,]2 | [C,,C,]4 |][M:2/4] C,,/D,,/E,,/F,,/G,,/^A,,/^B,,/C,/ | %261
 D,/E,/F,/[I:staff -1]G,/^A,/^B,/C/D/ | E/F/G/^A/^B/c/d/e/ | f/g/^a/^b/c'/=b/=a/g/ | %264
 f/e/d/c/B/A/G/F/ |[I:staff +1] E/D/C/B,/A,/G,/F,/E,/ | D,/C,/B,,/A,,/G,,/F,,/E,,/D,,/ :| %267
 C,,2 [F,,F,]2 | [G,,G,]2 [G,,,G,,]2 | [C,,C,]4 |][K:A][M:2/4] A,,,/B,,,/C,,/D,,/E,,/F,,/G,,/A,,/ | %271
 B,,/C,/D,/E,/F,/G,/A,/B,/ |[I:staff -1] C/D/E/F/G/A/B/c/ |!8va(! d/e/f/g/a/g/f/e/ | %274
 d/c/B/A/!8va)!G/F/E/D/ | C/B,/[I:staff +1]A,/G,/F,/E,/D,/C,/ | %276
 B,,/A,,/G,,/F,,/E,,/D,,/C,,/B,,,/ :| A,,,2 [D,,D,]2 | [E,,E,]2 [E,,,E,,]2 | [A,,,A,,]4 |] %280
[M:2/4] F,,/G,,/A,,/B,,/C,/D,/^E,/F,/ | G,/A,/B,/C/D/^E/F/G/ |[I:staff -1] A/B/c/d/^e/f/g/a/ | %283
 b/c'/d'/^e'/f'/e'/d'/c'/ | b/a/g/f/^e/d/c/B/ |[I:staff +1] A/G/F/^E/D/C/B,/A,/ | %286
 G,/F,/^E,/D,/C,/B,,/A,,/G,,/ :| F,,2 [B,,B,]2 | [C,C]2 [C,,C,]2 | [F,,F,]4 |] %290
[M:2/4] F,,/G,,/A,,/B,,/C,/^D,/^E,/F,/ | G,/A,/B,/[I:staff -1]C/^D/^E/F/G/ | A/B/c/^d/^e/f/g/a/ | %293
 b/c'/^d'/^e'/f'/=e'/=d'/c'/ | b/a/g/f/e/d/c/B/ |[I:staff +1] A/G/F/E/D/C/B,/A,/ | %296
 G,/F,/E,/D,/C,/B,,/A,,/G,,/ :| F,,2 [B,,B,]2 | [C,C]2 [C,,C,]2 | [F,,F,]4 |] %300
[K:D][M:2/4] D,,/E,,/F,,/G,,/A,,/B,,/C,/D,/ | E,/F,/G,/A,/B,/C/D/E/ | %302
[I:staff -1] F/G/A/B/c/d/e/f/ |!8va(! g/a/b/c'/d'/c'/b/a/ | g/f/e/d/!8va)!c/B/A/G/ | %305
 F/E/[I:staff +1]D/C/B,/A,/G,/F,/ | E,/D,/C,/B,,/A,,/G,,/F,,/E,,/ :| D,,2 [G,,G,]2 | %308
 [A,,A,]2 [A,,,A,,]2 | [D,,D,]4 |][M:2/4] B,,,/C,,/D,,/E,,/F,,/G,,/^A,,/B,,/ | %311
 C,/D,/E,/F,/G,/^A,/B,/C/ |[I:staff -1] D/E/F/G/^A/B/c/d/ |!8va(! e/f/g/^a/b/a/g/f/!8va)! | %314
 e/d/c/B/^A/G/F/E/ |[I:staff +1] D/C/B,/^A,/G,/F,/E,/D,/ | C,/B,,/^A,,/G,,/F,,/E,,/D,,/C,,/ :| %317
 B,,2 [E,,E,]2 | [F,,F,]2 [F,,,F,,]2 | [B,,,B,,]4 |][M:2/4] B,,,/C,,/D,,/E,,/F,,/^G,,/^A,,/B,,/ | %321
 C,/D,/E,/F,/^G,/^A,/B,/C/ |[I:staff -1] D/E/F/^G/^A/B/c/d/ | E/F/^G/^A/B/=A/=G/F/ | %324
 e/d/c/B/A/G/F/E/ |[I:staff +1] D/C/B,/A,/G,/F,/E,/D,/ | C,/B,,/A,,/G,,/F,,/E,,/D,,/C,,/ :| %327
 B,,,2 [E,,E,]2 | [F,,F,]2 [F,,,F,,]2 | [B,,,B,,]4 |][K:G][M:2/4] G,,/A,,/B,,/C,/D,/E,/F,/G,/ | %331
 A,/B,/C/D/E/F/G/A/ |[I:staff -1] B/c/d/e/f/g/a/b/ |!8va(! c'/d'/e'/f'/g'/f'/e'/d'/ | %334
 c'/b/a/g/!8va)!f/e/d/c/ | B/A/[I:staff +1]G/F/E/D/C/B,/ | A,/G,/F,/E,/D,/C,/B,,/A,,/ :| %337
 G,,2 [C,C]2 | [D,D]2 [D,,D,]2 | [G,,G,]4 |][M:2/4] E,,/F,,/G,,/A,,/B,,/C,/^D,/E,/ | %341
 F,/G,/A,/B,/C/^D/E/F/ |[I:staff -1] G/A/B/c/^d/e/f/g/ |!8va(! a/b/c'/^d'/e'/d'/c'/b/!8va)! | %344
 a/g/f/e/^d/c/B/A/ |[I:staff +1] G/F/E/^D/C/B,/A,/G,/ | F,/E,/^D,/C,/B,,/A,,/G,,/F,,/ :| %347
 E,2 [A,,A,]2 | [B,,B,]2 [B,,,B,,]2 | [E,,E,]4 |][M:2/4] E,,/F,,/G,,/A,,/B,,/^C,/^D,/E,/ | %351
 F,/G,/A,/B,/^C/^D/E/F/ |[I:staff -1] G/A/B/^c/^d/e/f/g/ | A/B/^c/^d/e/=d/=c/B/ | %354
 a/g/f/e/d/c/B/A/ |[I:staff +1] G/F/E/D/C/B,/A,/G,/ | F,/E,/D,/C,/B,,/A,,/G,,/F,,/ :| %357
 E,,2 [A,,A,]2 | [B,,B,]2 [B,,,B,,]2 | [E,,E,]4 |] %360
[K:C][M:3/4] C,,/^C,,/D,,/^D,,/E,,/F,,/^F,,/G,,/^G,,/A,,/^A,,/B,,/ | %361
 =C,/^C,/=D,/^D,/E,/=F,/^F,/=G,/^G,/=A,/^A,/B,/ |[K:treble] C/^C/D/^D/E/F/^F/G/^G/A/^A/B/ | %363
 c/^c/d/^d/e/f/^f/g/^g/a/^a/b/ | c'/b/_b/a/_a/g/_g/f/e/_e/d/_d/ | c/B/_B/A/_A/G/_G/F/E/_E/D/_D/ | %366
[K:bass] C/B,/_B,/A,/_A,/G,/_G,/F,/E,/_E,/D,/_D,/ | %367
 C,/B,,/_B,,/A,,/_A,,/G,,/_G,,/F,,/E,,/_E,,/D,,/_D,,/ :| C,,4 z2 |] %369
[M:3/4] C,,/^C,,/D,,/^D,,/E,,/^E,,/^F,,/=G,,/^G,,/A,,/^A,,/B,,/ | %370
 C,/^C,/D,/^D,/E,/^E,/^F,/=G,/^G,/A,/^A,/B,/ |[I:staff -1] C/^C/D/^D/E/^E/^F/=G/^G/A/^A/B/ | %372
 c/^c/d/^d/e/^e/f/g/^g/a/^a/b/ | =c'/b/_b/a/^g/=g/^f/=f/e/_e/d/^c/ | %374
 =c/B/_B/A/^G/=G/^F/=F/E/_E/D/^C/ |[I:staff +1] =C/B,/_B,/A,/^G,/=G,/^F,/=F,/E,/_E,/D,/^C,/ | %376
 =C,/B,,/_B,,/A,,/^G,,/=G,,/^F,,/=F,,/E,,/_E,,/D,,/^C,,/ :| =C,,4 z2 |] %378
[M:3/4] _E,,/=E,,/F,,/^F,,/G,,/_A,,/=A,,/_B,,/=B,,/C,/^C,/D,/ | %379
 _E,/=E,/=F,/^F,/=G,/_A,/=A,/_B,/=B,/C/^C/D/ |[I:staff -1] _E/=E/=F/^F/=G/_A/=A/_B/=B/c/^c/d/ | %381
 _E,/=E,/=F,/^F,/=G,/_A,/=A,/_B,/=B,/=C/^C/=D/ | _E/=D/_D/=C/_C/_B,/=A,/_A,/=G,/_G,/=F,/=E/ | %383
 _e/=d/_d/=c/_c/_B/=A/_A/=G/_G/=F/=E/ |[I:staff +1] _E/D/_D/=C/_C/_B,/A,/_A,/G,/_G,/=F,/=E,/ | %385
 _E,/=D,/_D,/=C,/_C,/_B,,/=A,,/_A,,/=G,,/_G,,/=F,,/=E,,/ :| _E,,4 z2 |] %387
[M:3/4] =E,,/^E,,/^F,,/G,,/^G,,/A,,/_B,,/=B,,/C,/^C,/D,/^D,/ | %388
 E,/^E,/^F,/G,/^G,/A,/_B,/=B,/C/^C/=D/^D/ |[I:staff -1] =E/^E/^F/=G/^G/=A/_B/=B/c/^c/d/^d/ | %390
 E/^E/^F/G/^G/A/_B/=B/c/^c/d/^d/ | e/^d/=d/^c/=c/B/_B/A/^G/=G/^F/=F/ | %392
 =e/^d/=d/^c/=c/=B/_B/=A/^G/=G/^F/=F/ |[I:staff +1] E/^D/=D/^C/=C/B,/_B,/A,/^G,/=G,/^F,/=F,/ | %394
 E,/^D,/=D,/^C,/=C,/=B,,/_B,,/=A,,/^G,,/=G,,/^F,,/=F,,/ :| E,,4 z2 |] %396
[M:3/4] C,,/^C,,/D,,/^D,,/E,,/F,,/^F,,/G,,/^G,,/A,,/_B,,/=B,,/ | %397
 C,/^C,/D,/^D,/E,/=F,/^F,/G,/^G,/A,/_B,/=B,/ | C/B,/_B,/A,/^G,/=G,/^F,/=F,/E,/_E,/D,/_D,/ | %399
 C,/B,,/_B,,/A,,/^G,,/=G,,/^F,,/=F,,/E,,/_E,,/D,,/_D,,/ :| C,,4 z2 |] %401
[M:3/4] C,,/^C,,/D,,/^D,,/E,,/F,,/^F,,/G,,/^G,,/A,,/^A,,/B,,/ | %402
 C,/^C,/D,/^D,/E,/F,/^F,/G,/^G,/A,/^A,/B,/ | C/B,/_B,/A,/_A,/G,/_G,/F,/E,/_E,/D,/_D,/ | %404
 C,/B,,/_B,,/A,,/^G,,/G,,/^F,,/=F,,/E,,/_E,,/D,,/_D,,/ :| C,,4 z2 |] %406
[M:3/4] C,,/^C,,/D,,/_E,,/=E,,/F,,/^F,,/G,,/_A,,/=A,,/_B,,/=B,,/ | %407
 C,/^C,/D,/_E,/=E,/F,/^F,/G,/_A,/=A,/_B,/=B,/ | C/B,/_B,/A,/^G,/=G,/^F,/=F,/E,/_E,/D,/_D,/ | %409
 C,/B,,/_B,,/A,,/^G,,/=G,,/^F,,/=F,,/E,,/_E,,/D,,/_D,,/ :| C,,4 z2 |] %411
[M:3/4] C,/^C,/D,/^D,/E,/F,/^F,/G,/^G,/A,/^A,/B,/ |[I:staff -1] C/^C/D/^D/E/F/^F/G/^G/A/^A/B/ | %413
 c/B/_B/A/_A/G/_G/F/E/_E/D/_D/ |[I:staff +1] C/B,/_B,/A,/_A,/G,/_G,/F,/E,/_E,/D,/_D,/ :| C,4 z2 |] %416
[M:3/4] C,,/E,,/G,,/C,/ E,/G,/C/[I:staff -1]E/ G/c/e/!8va(!g/ | %417
 c'/g/e/c/!8va)! G/E/C/[I:staff +1]G,/ E,/C,/G,,/E,,/ :| C,,4 z2 |] %419
[M:3/4] A,,,/C,,/E,,/A,,/ C,/E,/A,/[I:staff -1]C/ E/A/c/e/ | %420
 a/e/c/A/ E/C/[I:staff +1]A,/E,/ C,/A,,/E,,/C,,/ :| A,,,4 z2 |] %422
[K:F][M:3/4] F,,/A,,/C,/F,/ A,/C/F/[I:staff -1]A/ c/f/a/c'/ | %423
 f'/c'/a/f/ c/A/F/[I:staff +1]C/ A,/F,/C,/A,,/ :| F,,4 z2 |] %425
[M:3/4] D,,/F,,/A,,/D,/ F,/A,/D/[I:staff -1]F/ A/d/f/a/ | %426
 d'/a/f/d/ A/F/D/[I:staff +1]A,/ F,/D,/A,,/F,,/ :| D,,4 z2 |] %428
[K:Bb][M:3/4] B,,,/D,,/F,,/B,,/ D,/F,/B,/[I:staff -1]D/ F/B/d/f/ | %429
 b/f/d/B/ F/D/B,/[I:staff +1]F,/ D,/B,,/F,,/D,,/ :| B,,,4 z2 |] %431
[M:3/4] G,,,/B,,,/D,,/G,,/ B,,/D,/G,/[I:staff -1]B,/ D/G/B/d/ | %432
 g/d/B/G/ D/B,/G,/[I:staff +1]D,/ B,,/G,,/D,,/B,,,/ :| G,,,4 z2 |] %434
[K:Eb][M:3/4] E,,/G,,/B,,/E,/ G,/B,/E/[I:staff -1]G/ B/e/g/b/ | %435
 e'/b/g/e/ B/G/E/[I:staff +1]B,/ G,/E,/B,,/G,,/ :| E,,4 z2 |] %437
[M:3/4] C,,/E,,/G,,/C,/ E,/G,/C/[I:staff -1]E/ G/c/e/g/ | %438
 c'/g/e/c/ G/E/C/[I:staff +1]G,/ E,/C,/G,,/E,,/ :| C,,4 z2 |] %440
[K:Ab][M:3/4] A,,,/C,,/E,,/A,,/ C,/E,/A,/[I:staff -1]C/ E/A/c/e/ | %441
 a/e/c/A/ E/C/A,/[I:staff +1]E,/ C,/A,,/E,,/C,,/ :| A,,,4 z2 |] %443
[M:3/4] F,,/A,,/C,/F,/ A,/C/F/[I:staff -1]A/ c/f/a/c'/ | %444
 f'/c'/a/f/ c/A/F/[I:staff +1]C/ A,/F,/C,/A,,/ :| F,,4 z2 |] %446
[K:Db][M:3/4] D,,/F,,/A,,/D,/ F,/A,/D/[I:staff -1]F/ A/d/f/a/ | %447
 d'/a/f/d/ A/F/D/[I:staff +1]A,/ F,/D,/A,,/F,,/ :| D,,4 z2 |] %449
[M:3/4] B,,,/D,,/F,,/B,,/ D,/F,/B,/[I:staff -1]D/ F/B/d/f/ | %450
 b/f/d/B/ F/D/B,/[I:staff +1]F,/ D,/B,,/F,,/D,,/ :| B,,,4 z2 |] %452
[K:Gb][M:3/4] G,,,/B,,,/D,,/G,,/ B,,/D,/G,/[I:staff -1]B,/ D/G/B/d/ | %453
 g/d/B/G/ D/B,/G,/[I:staff +1]D,/ B,,/G,,/D,,/B,,,/ :| G,,,4 z2 |] %455
[M:3/4] E,,/G,,/B,,/E,/ G,/B,/E/[I:staff -1]G/ B/e/g/b/ | %456
 e'/b/g/e/ B/G/E/[I:staff +1]B,/ G,/E,/B,,/G,,/ :| E,,4 z2 |] %458
[K:B][M:3/4] B,,,/D,,/F,,/B,,/ D,/F,/B,/[I:staff -1]D/ F/B/d/f/ | %459
 b/f/d/B/ F/D/B,/[I:staff +1]F,/ D,/B,,/F,,/D,,/ :| B,,,4 z2 |] %461
[M:3/4] G,,,/B,,,/D,,/G,,/ B,,/D,/G,/[I:staff -1]B,/ D/G/B/d/ | %462
 g/d/B/G/ D/B,/G,/[I:staff +1]D,/ B,,/G,,/D,,/B,,,/ :| G,,,4 z2 |] %464
[K:E][M:3/4] E,,/G,,/B,,/E,/ G,/B,/E/[I:staff -1]G/ B/e/g/b/ | %465
 e'/b/g/e/ B/G/E/[I:staff +1]B,/ G,/E,/B,,/G,,/ :| E,,4 z2 |] %467
[M:3/4] C,,/E,,/G,,/C,/ E,/G,/C/[I:staff -1]E/ G/c/e/g/ | %468
 c'/g/e/c/ G/E/C/[I:staff +1]G,/ E,/C,/G,,/E,,/ :| C,,4 z2 |] %470
[K:A][M:3/4] A,,,/C,,/E,,/A,,/ C,/E,/A,/C/[I:staff -1] E/A/c/!8va(!e/ | %471
 a/e/!8va)!c/A/ E/C/[I:staff +1]A,/E,/ C,/A,,/E,,/C,,/ :| A,,,4 z2 |] %473
[M:3/4] F,,,/A,,,/C,,/F,,/ A,,/C,/F,/A,/ C/F/A/c/ | f/c/A/F/ C/A,/F,/C,/ A,,/F,,/C,,/A,,,/ :| %475
 F,,,4 z2 |][K:D][M:3/4] D,,/F,,/A,,/D,/ F,/A,/D/[I:staff -1]F/ A/d/f/a/ | %477
 d'/a/f/d/ A/F/D/[I:staff +1]A,/ F,/D,/A,,/F,,/ :| D,,4 z2 |] %479
[M:3/4] B,,,/D,,/F,,/B,,/ D,/F,/B,/[I:staff -1]D/ F/B/d/f/ | %480
 b/f/d/B/ F/D/B,/[I:staff +1]F,/ D,/B,,/F,,/D,,/ :| B,,,4 z2 |] %482
[K:G][M:3/4] G,,,/B,,,/D,,/G,,/ B,,/D,/G,/B,/[I:staff -1] D/G/B/d/ | %483
 g/d/B/G/ D/[I:staff +1]B,/G,/D,/ B,,/G,,/D,,/B,,,/ :| G,,,4 z2 |] %485
[M:3/4] E,,/G,,/B,,/E,/ G,/B,/E/[I:staff -1]G/ B/e/g/b/ | %486
 e'/b/g/e/ B/G/E/[I:staff +1]B,/ G,/E,/B,,/G,,/ :| E,,4 z2 |] %488
[K:C][M:2/4] C,,/_E,,/^F,,/A,,/C,/A,,/F,,/E,,/ :: C,,/_E,,/^F,,/A,,/C,/_E,/^F,/A,/ | %490
[I:staff -1] C/_E/^F/A/c/A/F/E/ |[I:staff +1] C/A,/^F,/_E,/C,/A,,/^F,,/_E,,/ :: %492
 D,,/=F,,/_A,,/B,,/D,/B,,/A,,/F,,/ :: D,,/F,,/_A,,/B,,/D,/F,/_A,/B,/ | %494
[I:staff -1] D/=F/_A/B/d/B/A/F/ |[I:staff +1] D/B,/_A,/F,/D,/B,,/_A,,/F,,/ :: %496
 E,,/G,,/_B,,/^C,/E,/C,/B,,/G,,/ :: E,,/G,,/_B,,/^C,/E,/G,/_B,/^C/ | %498
[I:staff -1] E/G/_B/^c/e/c/B/G/ | E/^C/[I:staff +1]_B,/G,/E,/^C,/_B,,/G,,/ :: %500
 F,,/_A,,/B,,/D,/F,/D,/B,,/A,,/ :: F,,/_A,,/B,,/D,/F,/_A,/=B,/[I:staff -1]D/ | F/_A/=B/d/f/d/B/A/ | %503
 F/D/[I:staff +1]=B,/_A,/F,/D,/B,,/_A,,/ :: G,,/_B,,/^C,/E,/G,/E,/C,/B,,/ :: %505
 G,,/_B,,/^C,/E,/G,/_B,/^C/[I:staff -1]E/ | G/_B/^c/e/g/e/c/B/ | %507
 G/E/^C/[I:staff +1]_B,/G,/E,/^C,/_B,,/ :: A,,/=C,/_E,/^F,/A,/F,/E,/C,/ :: %509
 A,,/C,/_E,/^F,/A,/C/[I:staff -1]_E/^F/ |[I:staff +1][K:treble] A/c/_e/^f/a/f/e/c/ | %511
 A/^F/_E/C/[K:bass]A,/^F,/_E,/C,/ :: B,,/D,/=F,/_A,/B,/A,/F,/D,/ :: %513
 B,,/D,/F,/_A,/B,/[I:staff -1]D/F/_A/ |[I:staff +1][K:treble] B/d/f/_a/b/a/f/d/ | %515
 B/_A/F/D/[K:bass]B,/_A,/F,/D,/ :| B,/_A,/F,/D,/B,,/_A,,/F,,/D,,/ || C,,4 |] %518
[M:2/4] C,,/E,,/G,,/_B,,/C,/B,,/G,,/E,,/ :: C,,/E,,/G,,/_B,,/C,/E,/G,/_B,/ | C/E/G/_B/c/B/G/E/ | %521
 C/_B,/G,/E,/C,/_B,,/G,,/E,,/ :: D,,/^F,,/A,,/C,/D,/C,/A,,/F,,/ :: D,,/^F,,/A,,/C,/D,/^F,/A,/C/ | %524
 D/^F/A/c/d/c/A/F/ |[I:staff -1] D/[I:staff +1]C/A,/^F,/D,/C,/A,,/^F,,/ :: %526
 E,,/^G,,/B,,/D,/E,/D,/B,,/G,,/ :: E,,/^G,,/B,,/D,/E,/^G,/B,/D/ | E/^G/B/d/e/d/B/G/ | %529
[I:staff -1] E/D/[I:staff +1]B,/^G,/E,/D,/B,,/^G,,/ :: F,,/A,,/C,/_E,/F,/E,/C,/A,,/ :: %531
 F,,/A,,/C,/_E,/F,/A,/C/[I:staff -1]_E/ | F/A/c/_e/f/e/c/A/ | %533
 F/_E/C/[I:staff +1]A,/F,/_E,/C,/A,,/ :: G,,/B,,/D,/F,/G,/F,/D,/B,,/ :: %535
 G,,/B,,/D,/F,/G,/B,/[I:staff -1]D/F/ | G/B/d/f/g/f/d/B/ | G/F/D/[I:staff +1]B,/G,/F,/D,/B,,/ :: %538
 A,,/^C,/E,/G,/A,/G,/E,/C,/ :: A,,/^C,/E,/G,/A,/^C/[K:treble]E/G/ | A/^c/e/g/a/g/e/c/ | %541
 A/G/E/^C/[K:bass]A,/G,/E,/^C,/ :| B,,/^D,/^F,/A,/B,/A,/F,/D,/ :: %543
 B,,/^D,/^F,/A,/B,/^D/[K:treble]^F/A/ | B/^d/^f/a/b/a/f/d/ | B/A/^F/^D/[K:bass]B,/A,/^F,/^D,/ :| %546
 C,/E,/G,/B,/[I:staff -1]C/E/G/B/ | c/B/G/E/[I:staff +1]C/B,/G,/E,/ | C,/E,/G,/B,/C/B,/G,/E,/ | %549
 C,/B,,/G,,/E,,/C,,/E,,/G,,/B,,/ | [C,,E,,G,,C,]4 |] %551

